X:1
T:Elverumspols #1     % name
C:e. Johan Olsen Tajet     % composer
N: Taught by Marit Larsen Westling, 2/20/05;
N: transcr. by Sarah Kirton, 2/23/05
N: Scandia Festival, Petaluma CA
Q:1/4=120     %Tempo
M:3/4     %Meter
L:1/8     % ref note value
K:C
G2 |g^f g>a g=f |"m"e^d e>f e=d |cB c>e dc |Bc {c}d>B G2 |
(g^f) g>a g=f |"m"e^d e>f e=d |cB c>e dB |{B}c4 :|
|:c2 |G2 (B/c)c/ {c}d2 |cB {B}c>e g2 |(fe) f>g a2 |
(ed) c>e {e}g2 |("m"fd) B>G AB |{B}c4 :|
"Tag" e2 |fd B>G AB |c3/2  "C = melody note" z/ {B}[e4c4E4] |]
W:
W: "m" ==  Mordant - ie., a "trill" of only one finger flick.
W:
W:Notes:  The rhythm for Elverumspols is VERY similar to that of  Telespringar.  One
W: is long, two is just a tiny bit shorter, three is about half of two.  Accenting  is heavy
W: one, heaviest two, heavy three.  (ie, it's bouncy.)
W:
W: Note that an 1/8 note within beat 3 is just barely longer than a 16th note within
W: beat 2 (or ~ the same length,depending on the tune & phrase.)  These pols forms
W: were written with a time signature of 2&1/2 by early collectors for good reason.
W:
W: Elverumspols are only played once.  The tag is used by the dancers to thank each
W: other.  Then they promenade,waiting for the next tune.  In Elverum, of course,
W: most of the evening's dances would be Elverum's pols.  Here, we usually play at
W: least 3 in a row to make up the equivalent of 1 dance on the dance program.
